apps/scalable/wxglade.svg

<svg height="48" width="48" xmlns="http://www.w3.org/2000/svg"><path d="m46.5 24a22.696228 22.696232 0 0 1 -22.696229 22.696232 22.696228 22.696232 0 0 1 -22.6962282-22.696232 22.696228 22.696232 0 0 1 22.6962282-22.69623 22.696228 22.696232 0 0 1 22.696229 22.69623z" fill="#4e7cc6"/><g fill="#ffffff"><path d="m23.804688 6c-9.941126-.0000003-18.0000005 8.058874-18.0000005 18s8.0588745 18 18.0000005 18c5.097384-.0082 9.95227-2.177307 13.359374-5.96875l-13.164062-10.53125 15.669922-9.970703c-3.125427-5.8600806-9.223788-9.5230016-15.865234-9.529297z" fill-opacity=".312217"/><path d="m23.804688 6c-9.941126-.0000003-18.0000005 8.058874-18.0000005 18 .00611 3.161487.8447854 6.265602 2.4316406 9h2.2636719 4.5v4.5h4.5 4.5v-4.5h4.5v4.5h4.5v-4.5h.375l-9.375-7.5 15.669922-9.970703c-3.125427-5.8600806-9.223788-9.5230016-15.865234-9.529297z" fill-opacity=".425339"/><path d="m23.804688 6c-9.941126-.0000003-18.0000005 8.058874-18.0000005 18 .0086194.824468.0738772 1.64737.1953125 2.462891v-2.16211h4.5v4.199219h4.5 4.5v-4.199219h4.5v1.199219l15.669922-9.970703c-3.125427-5.8600806-9.223788-9.5230016-15.865234-9.529297zm.195312 19.5v3h3.75zm0 3h-4.5v4.5h4.5 4.5v4.5h4.5v-4.5h.375l-4.875-3.900391v3.59961h-4.5zm-13.5 0h-4.0917969c.4032649 1.575706 1.0182374 3.089484 1.828125 4.5h2.2636719 4.5v-.300781h-4.5z"/></g><path d="m16.267578 11.029297v1.375a3.3 3.3 0 0 0 -1.130859.652343l-1.191407-.6875-1.050781 1.81836 1.189453.685547a3.3 3.3 0 0 0 -.06641.65625 3.3 3.3 0 0 0 .06836.652343l-1.191406.6875 1.050781 1.81836 1.189457-.6875a3.3 3.3 0 0 0 1.132812.654297v1.375h2.099609v-1.375a3.3 3.3 0 0 0 1.132813-.654297l1.189453.6875 1.050781-1.81836-1.189453-.685546a3.3 3.3 0 0 0 .06641-.654297 3.3 3.3 0 0 0 -.06836-.654297l1.191406-.6875-1.050781-1.81836-1.191406.6875a3.3 3.3 0 0 0 -1.13086-.652343v-1.375z" fill="#4e7cc6"/><path d="m24.870388 13.606625v1.172011a2.7964412 2.8128249 0 0 0 -.958297.556038l-1.009606-.586005-.890438 1.549918 1.00795.58434a2.7964412 2.8128249 0 0 0 -.05628.559369 2.7964412 2.8128249 0 0 0 .05793.556038l-1.009605.586005.890439 1.549918 1.007953-.586005a2.7964412 2.8128249 0 0 0 .959952.557704v1.17201h1.779222v-1.17201a2.7964412 2.8128249 0 0 0 .959953-.557704l1.00795.586005.890439-1.549918-1.00795-.584339a2.7964412 2.8128249 0 0 0 .05628-.557704 2.7964412 2.8128249 0 0 0 -.05793-.557704l1.009605-.586005-.890439-1.549918-1.009605.586005a2.7964412 2.8128249 0 0 0 -.958298-.556038v-1.172011z" fill="#4e7cc6"/></svg>

<?xml version="1.0" encoding="UTF-8" standalone="no"?>
<svg
   height="48"
   width="48"
   version="1.1"
   id="svg16"
   sodipodi:docname="wxglade.svg"
   inkscape:version="1.1.2 (0a00cf5339, 2022-02-04)"
   xmlns:inkscape="http://www.inkscape.org/namespaces/inkscape"
   xmlns:sodipodi="http://sodipodi.sourceforge.net/DTD/sodipodi-0.dtd"
   xmlns="http://www.w3.org/2000/svg"
   xmlns:svg="http://www.w3.org/2000/svg">
  <defs
     id="defs20" />
  <sodipodi:namedview
     id="namedview18"
     pagecolor="#ffffff"
     bordercolor="#666666"
     borderopacity="1.0"
     inkscape:pageshadow="2"
     inkscape:pageopacity="0.0"
     inkscape:pagecheckerboard="0"
     showgrid="false"
     inkscape:zoom="4.09375"
     inkscape:cx="-4.3969466"
     inkscape:cy="52.641221"
     inkscape:window-width="1920"
     inkscape:window-height="1031"
     inkscape:window-x="0"
     inkscape:window-y="0"
     inkscape:window-maximized="1"
     inkscape:current-layer="svg16" />
  <path
     id="path2"
     d="M 23.804688 1.3046875 A 22.696228 22.696232 0 0 0 1.1074219 24 A 22.696228 22.696232 0 0 0 23.804688 46.695312 A 22.696228 22.696232 0 0 0 46.5 24 A 22.696228 22.696232 0 0 0 23.804688 1.3046875 z "
     style="fill:#81a1c1;fill-opacity:1" />
  <g
     fill="#ffffff"
     id="g10">
    <path
       d="m23.804688 6c-9.941126-.0000003-18.0000005 8.058874-18.0000005 18s8.0588745 18 18.0000005 18c5.097384-.0082 9.95227-2.177307 13.359374-5.96875l-13.164062-10.53125 15.669922-9.970703c-3.125427-5.8600806-9.223788-9.5230016-15.865234-9.529297z"
       fill-opacity=".312217"
       id="path4" />
    <path
       d="m23.804688 6c-9.941126-.0000003-18.0000005 8.058874-18.0000005 18 .00611 3.161487.8447854 6.265602 2.4316406 9h2.2636719 4.5v4.5h4.5 4.5v-4.5h4.5v4.5h4.5v-4.5h.375l-9.375-7.5 15.669922-9.970703c-3.125427-5.8600806-9.223788-9.5230016-15.865234-9.529297z"
       fill-opacity=".425339"
       id="path6" />
    <path
       d="m23.804688 6c-9.941126-.0000003-18.0000005 8.058874-18.0000005 18 .0086194.824468.0738772 1.64737.1953125 2.462891v-2.16211h4.5v4.199219h4.5 4.5v-4.199219h4.5v1.199219l15.669922-9.970703c-3.125427-5.8600806-9.223788-9.5230016-15.865234-9.529297zm.195312 19.5v3h3.75zm0 3h-4.5v4.5h4.5 4.5v4.5h4.5v-4.5h.375l-4.875-3.900391v3.59961h-4.5zm-13.5 0h-4.0917969c.4032649 1.575706 1.0182374 3.089484 1.828125 4.5h2.2636719 4.5v-.300781h-4.5z"
       id="path8" />
  </g>
  <path
     id="path12"
     d="M 16.267578 11.029297 L 16.267578 12.404297 A 3.3 3.3 0 0 0 15.136719 13.056641 L 13.945312 12.369141 L 12.894531 14.1875 L 14.083984 14.873047 A 3.3 3.3 0 0 0 14.017578 15.529297 A 3.3 3.3 0 0 0 14.085938 16.181641 L 12.894531 16.869141 L 13.945312 18.6875 L 15.134766 18 A 3.3 3.3 0 0 0 16.267578 18.654297 L 16.267578 20.029297 L 18.367188 20.029297 L 18.367188 18.654297 A 3.3 3.3 0 0 0 19.5 18 L 20.689453 18.6875 L 21.740234 16.869141 L 20.550781 16.183594 A 3.3 3.3 0 0 0 20.617188 15.529297 A 3.3 3.3 0 0 0 20.548828 14.875 L 21.740234 14.1875 L 20.689453 12.369141 L 19.498047 13.056641 A 3.3 3.3 0 0 0 18.367188 12.404297 L 18.367188 11.029297 L 16.267578 11.029297 z M 24.871094 13.607422 L 24.871094 14.779297 A 2.7964412 2.8128249 0 0 0 23.912109 15.333984 L 22.902344 14.748047 L 22.011719 16.298828 L 23.019531 16.882812 A 2.7964412 2.8128249 0 0 0 22.962891 17.441406 A 2.7964412 2.8128249 0 0 0 23.021484 17.998047 L 22.011719 18.583984 L 22.902344 20.134766 L 23.910156 19.548828 A 2.7964412 2.8128249 0 0 0 24.871094 20.105469 L 24.871094 21.277344 L 26.650391 21.277344 L 26.650391 20.105469 A 2.7964412 2.8128249 0 0 0 27.609375 19.548828 L 28.617188 20.134766 L 29.507812 18.583984 L 28.5 18 A 2.7964412 2.8128249 0 0 0 28.556641 17.441406 A 2.7964412 2.8128249 0 0 0 28.498047 16.884766 L 29.507812 16.298828 L 28.617188 14.748047 L 27.607422 15.333984 A 2.7964412 2.8128249 0 0 0 26.650391 14.779297 L 26.650391 13.607422 L 24.871094 13.607422 z "
     style="fill:#81a1c1;fill-opacity:1" />
</svg>
